X:179
T: MAIENBLUEMLEIN SO SCHOEN
N: B0213
O: Europa, Mitteleuropa, Deutschland
R: Jahreszeiten - Lied, Fruehling
M: 3/8
L: 1/16
K: C
 | C,2E,2^F,2 | G,2A,B,C2 |
C2A,2D2 | B,CA,B,G,2 |
G,2B,2C2 | ^C4D2 |
G,2B,2=C2 | ^C4D2 |
=C,2E,2G,2 | ^G,2^F,2G,2 | A,4B,2 | C4z2 |
E3DC2 | B,2A,2G,2 | G,6 | C4z2

@@@ Tune index: 1982
